!!!!SEGMENT: pl-kk--kk-i-316--001_anonim--zdrowas-badz-maria.krn
!!!cenid: 17xx:2172
!!!COM: Anonim
!!!COM-rismid: pe30004985
!!!CDT:
!!!CNT:
!!!OTL: Zdrowaś bądź Maria
!!!PDT:
!!!AGN: Sacred
!!!SMS-siglum: PL-Kk
!!!SMS-shelfmark: Kk.I.316
!!!SMS-shelfwork: 001 W
!!!SMS-variant:
!!!SMS-altvar:
!!!NIFC-rismid: 1001146209
!!!URL-scan: http://repozytorium.nifc.pl/skany/pl-kk-nut--i-316
!!!ONB-nifc: UWAGA: utwory w zbiorze: 1. Zdrowaś bądź Maria, 2. Boże wieczny Boże żywy
**kern	**fba	**kern	**kern	**kern	**text	**text	**text	**text	**text	**kern	**text	**text	**text	**text	**text	**kern	**text	**text	**text	**text	**text	**kern	**text	**text	**text	**text	**text	**kern	**text	**text	**text	**text	**text
*part8	*	*part7	*part6	*part5	*part5	*part5	*part5	*part5	*part5	*part4	*part4	*part4	*part4	*part4	*part4	*part3	*part3	*part3	*part3	*part3	*part3	*part2	*part2	*part2	*part2	*part2	*part2	*part1	*part1	*part1	*part1	*part1	*part1
*	*	*group2	*group2	*group1	*	*	*	*	*	*group1	*	*	*	*	*	*group1	*	*	*	*	*	*group1	*	*	*	*	*	*group1	*	*	*	*	*
*staff8	*	*staff7	*staff6	*staff5	*staff5	*staff5	*staff5	*staff5	*staff5	*staff4	*staff4	*staff4	*staff4	*staff4	*staff4	*staff3	*staff3	*staff3	*staff3	*staff3	*staff3	*staff2	*staff2	*staff2	*staff2	*staff2	*staff2	*staff1	*staff1	*staff1	*staff1	*staff1	*staff1
*I"Organo è Violone	*	*I"Violino 2do.	*I"Violino 1mo.	*I"Baſso.	*	*	*	*	*	*I"Tenore	*	*	*	*	*	*I"Alto.	*	*	*	*	*	*I"Canto 2do.	*	*	*	*	*	*I"Canto. 1mo.	*	*	*	*	*
*I'org	*	*I'vl 2	*I'vl 1	*I'B	*	*	*	*	*	*I'T	*	*	*	*	*	*I'A	*	*	*	*	*	*I'S 2	*	*	*	*	*	*I'S 1	*	*	*	*	*
*clefF4	*	*clefG2	*clefG2	*clefF4	*	*	*	*	*	*clefC4	*	*	*	*	*	*clefC3	*	*	*	*	*	*clefC1	*	*	*	*	*	*clefC1	*	*	*	*	*
*k[b-]	*	*k[b-]	*k[b-]	*k[b-]	*	*	*	*	*	*k[b-]	*	*	*	*	*	*k[b-]	*	*	*	*	*	*k[b-]	*	*	*	*	*	*k[b-]	*	*	*	*	*
*F:	*	*F:	*F:	*F:	*	*	*	*	*	*F:	*	*	*	*	*	*F:	*	*	*	*	*	*F:	*	*	*	*	*	*F:	*	*	*	*	*
*M4/4	*	*M4/4	*M4/4	*M4/4	*	*	*	*	*	*M4/4	*	*	*	*	*	*M4/4	*	*	*	*	*	*M4/4	*	*	*	*	*	*M4/4	*	*	*	*	*
*met(c)	*	*met(c)	*met(c)	*met(c)	*	*	*	*	*	*met(c)	*	*	*	*	*	*met(c)	*	*	*	*	*	*met(c)	*	*	*	*	*	*met(c)	*	*	*	*	*
=1	=1	=1	=1	=1	=1	=1	=1	=1	=1	=1	=1	=1	=1	=1	=1	=1	=1	=1	=1	=1	=1	=1	=1	=1	=1	=1	=1	=1	=1	=1	=1	=1	=1
!LO:TX:b:t=Zdrowáś bądź	!	!	!	!	!	!	!	!	!	!	!	!	!	!	!	!	!	!	!	!	!	!	!	!	!	!	!	!	!	!	!	!	!
!LO:TX:t=P:problem:znaki BB- B-	!	!LO:TX:b:t=Zdrowaś bądz	!LO:TX:b:t=Zdrowáś bądz	!LO:TX:t=P:problem:znaki BB- B-	!	!	!	!	!	!	!	!	!	!	!	!	!	!	!	!	!	!	!	!	!	!	!	!	!	!	!	!	!
4F\	.	4A/	4f/	4F\	Zdro-	Łas-	Pan	Bło-	A-	4c\	Zdro-	Łas-	Pan	Bło-	A-	4a\	Zdro-	Łas-	Pan	Bło-	A-	4f/	Zdro-	Łas-	Pan	Bło-	A-	4f/	Zdro-	Łas-	Pan	Bło-	A-
4F\	.	4A/	4f/	4F\	-wáś	-kis	stwo-	-go-	-men	4c\	-waś	-kiś	stwo-	-go-	-men	4a\	-waś	-kis	stwo-	-go-	-men	4f/	-waś	-kiś	stwo-	-go-	-men	4f/	-waś	-kis	stwo-	-go-	-men
4F\	.	4c/	4a/	4F\	bądZ	peł-	-rZył	-sła-	wsZys-	4c\	bądZ	peł-	-rZył	-sła-	wsZys-	4a\	bądz	peł-	-rZył	-sła-	wsZys-	4c/	bądZ	peł-	-rZył	-sła-	wsZys-	4a\	bądz	peł-	-rZył	-sła-	wsZys-
4D\	6\	4f/	4bn/	4D/	Ma-	-na	a-	-wio-	-cy	4d\	Ma-	-na	A-	-wio-	-cy	4f\	Ma-	-na	A-	-wio-	-cy	4f/	Ma-	-na	A-	-wio-	-cy	4bn\	Ma-	-na	A-	-wio-	-cy
=2	=2	=2	=2	=2	=2	=2	=2	=2	=2	=2	=2	=2	=2	=2	=2	=2	=2	=2	=2	=2	=2	=2	=2	=2	=2	=2	=2	=2	=2	=2	=2	=2	=2
*	*	*	*2\right	*	*	*	*	*	*	*2\right	*	*	*	*	*	*2\right	*	*	*	*	*	*	*	*	*	*	*	*2\right	*	*	*	*	*
2C/	.	2e/	2cc\	2C/	-ry-	Pań-	-da-	-naś	rZecZ-	2en\	-ry-	Pań-	-da-	-naś	rZecz-	2g\	-ry-	Pań-	-da-	-naś	rZecZ-	2e/	-ry-	Pań-	-da-	-naś	rZecZ-	2cc\	-ry-	Pan-	-da-	-naś	rZecZ-
2C/	.	2e/	2cc\	2C/	-a	-ſkiey	-ma	Ty	-my	2e\	-a	-ſkiey	-ma	Ty	-my	2g\	-a	-ſkiey,	-ma	Ty	-my	2e/	-a	-ſkiey,	-ma,	Ty	-my,	2cc\	-a	-ſkiey	-ma,	Ty	-my
=3	=3	=3	=3	=3	=3	=3	=3	=3	=3	=3	=3	=3	=3	=3	=3	=3	=3	=3	=3	=3	=3	=3	=3	=3	=3	=3	=3	=3	=3	=3	=3	=3	=3
4G\	n	4bn\	4dd\	4G\	nie-	CZys-	ludz-	nad	wier-	4d\	nie-	Czys-	ludz-	nad	wier-	4g\	nie-	cZys-	ludz-	nad	wier-	4bn\	nie-	cZys-	ludz-	nad	Wier-	4dd\	nie-	cZys-	ludz-	nad	wier-
4E\	6	4cc\	4ee\	4E\	-bies-	-tos-	-kie-	wsZys-	-ni	4c\	-bies-	-toś-	-kie-	wsZys-	-ni	4g\	-bies-	-toś-	-kie-	wsZys-	-ni	4cc\	-bies-	-tos-	-kie-	wsZys-	-ni	4ee\	-bies-	-tos-	-kie-	wsZys-	-ni
4D\	-	4dd\	4ff\	4D\	-ka	-ci	-go	-tko	ChrZes-	4A/	-ka	-ci	-go	-tko	ChrZes-	4a\	-ka	-ći	-go	-tko	ChrZes-	4dd\	-ka	-ci	-go	-tKo	ChrZes-	4ff\	-ka	-ci	-go	-tko	ChrZes-
4E\	6	4g/	4cc\	4E\	Li-	A-	ple-	stwo-	-ci-	4e\	li-	a-	ple-	stwo-	-ci-	4g\	Li-	A-	ple-	stwo-	-ci-	4g/	Li-	a-	Ple-	stwo-	-ci-	4cc\	Li-	a-	ple-	stwo-	-ci-
=4	=4	=4	=4	=4	=4	=4	=4	=4	=4	=4	=4	=4	=4	=4	=4	=4	=4	=4	=4	=4	=4	=4	=4	=4	=4	=4	=4	=4	=4	=4	=4	=4	=4
4F\	6 5	8f/L	4a/	(4F\	-li-	-niel-	-mie-	-rZe-	-a-	2d\	-li-	-niel-	-mie-	-rZe-	-a-	(4a\	-li-	-niel-	-mie-	-rZe-	-a-	(4f/	-li-	-niel-	-mie-	-rZe-	-a-	(4a\	-li-	-niel-	-mie-	-rZe-	-a-
.	.	8e/J	.	.	.	.	.	.	.	.	.	.	.	.	.	.	.	.	.	.	.	.	.	.	.	.	.	.	.	.	.	.	.
!	!	!LO:TX:a:t=t	!	!	!	!	!	!	!	!	!	!	!	!	!	!	!	!	!	!	!	!	!	!	!	!	!	!	!	!	!	!	!
4G\	n	4d/	4bn/	4G\)	.	.	.	.	.	.	.	.	.	.	.	4g\)	.	.	.	.	.	4d/)	.	.	.	.	.	4bnt\)	.	.	.	.	.
2C/	.	2e/	2cc\	2C/	-a	-skiey,	-nia	-nie	-nie	2c\	-a	-skiey,	-nia	-nie	-nie	2g\	-a,	-skiey,	-nia	-nie	-nie	2e/	-a	-skiey,	-nia	-nie,	-nie	2cc\	-a,	-skiey,	-nia	-nie,	-nie
=5	=5	=5	=5	=5	=5	=5	=5	=5	=5	=5	=5	=5	=5	=5	=5	=5	=5	=5	=5	=5	=5	=5	=5	=5	=5	=5	=5	=5	=5	=5	=5	=5	=5
4G\	-	4g/	4b-X/	4G\	Pa-	Pan-	Oy-	Pan	cos-	4d\	Pa-	Pan-	Oy-	Pan	cos-	4g\	Pa-	Pan-	Oy-	Pan	cos-	4g/	Pa-	Pan-	Oy-	Pan	Cos-	4b-X\	Pa-	Pan-	Oy-	Pan	cos-
8c\L	.	4e/	4g/	8c\L	-nu	-naś	-ca	Bog	-cie	4c\	-nu	-naś	-ca	Bog	-cie	4g\	-nu	-naś	-ca,	Bog	-cie	4e/	-nu	-naś	-ca	Bog	-cie	4g/	-nu	-naś	-ca	Bog	-cie
8B-\J	6 4	.	.	8B-X\J	.	.	.	.	.	.	.	.	.	.	.	.	.	.	.	.	.	.	.	.	.	.	.	.	.	.	.	.	.
4A\	6	4f/	4a/	4A\	Bo-	nad	E-	wsZech-	się	4c\	Bo-	nad	E-	wsZech-	się	4f\	Bo-	nad	E-	wsZech-	się	4f/	Bo-	nad	E-	wsZech-	się	4a\	Bo-	nad	E-	wsZech-	się
4G\	-	4g/	4b-/	4G\	-gu	Pan-	-wę	-mo-	tu	4B-X\	-gu	Pan-	-wę	-mo-	tu	4en\	-gu	Pan-	-wę	-mo-	tu	4g/	-gu	Pan-	-wę	-mo-	tu	4b-\	-gu	Pan-	-wę	-mo-	tu
=6	=6	=6	=6	=6	=6	=6	=6	=6	=6	=6	=6	=6	=6	=6	=6	=6	=6	=6	=6	=6	=6	=6	=6	=6	=6	=6	=6	=6	=6	=6	=6	=6	=6
8F\L	.	8c/	4a/	8F\L	mi-	-na-	Mat-	-gą-	ze-	(8c\L	mi-	-na-	Mat-	-gą-	ze-	(8f\L	mi-	-na-	Mat-	-gą-	Ze-	8c/	mi-	-na-	Mat-	-gą-	ze-	4b-\	mi-	-na-	Mat-	-gą-	ze-
8BB-\J	6 5	4f/	.	8BB-\J	.	.	.	.	.	8d\J)	.	.	.	.	.	8b-\J)	.	.	.	.	.	4f/	.	.	.	.	.	.	.	.	.	.	.
!	!	!	!LO:TX:a:t=t	!	!	!	!	!	!	!	!	!	!	!	!	!	!	!	!	!	!	!	!	!	!	!	!	!	!	!	!	!	!
4C/	4	.	4g/	4C/	.	.	.	.	.	4c\	.	.	.	.	.	4g\	.	.	.	.	.	.	.	.	.	.	.	4gT/	.	.	.	.	.
.	3	8e/	.	.	.	.	.	.	.	.	.	.	.	.	.	.	.	.	.	.	.	8e/	.	.	.	.	.	.	.	.	.	.	.
2FF/	.	2f/	2f/	2FF/	-ła.	-mi.	-kę	-cy,	-szli,	2c\	-ła	-mi	-kę	-cy,	-szli	2a\	-ła,	-mi,	-kę,	-cy	-sZli	2f/	-ła:	-mi,	-kę,	-cy,	-szli	2f/	-ła,	-mi,	-kę.	-cy,	-szli,
=7	=7	=7	=7	=7	=7	=7	=7	=7	=7	=7	=7	=7	=7	=7	=7	=7	=7	=7	=7	=7	=7	=7	=7	=7	=7	=7	=7	=7	=7	=7	=7	=7	=7
!	!	!	!	!	!	!	!	!	!	!LO:TX:a:t=1	!	!	!	!	!	!	!	!	!	!	!	!	!	!	!	!	!	!	!	!	!	!	!
4Cn/	.	4cc\	4ee\	1r	.	.	.	.	.	1r	.	.	.	.	.	1r	.	.	.	.	.	4cc\	Mat-	Swię-	Co	dał	Ku	4ee\	Mat-	Swię-	Co	dał	Ku
4r	.	4dd\	4ff\	.	.	.	.	.	.	.	.	.	.	.	.	.	.	.	.	.	.	4dd\	-ko	-ta	ZgrZe-	prZez	chwa-	4ff\	-ko	-ta	ZgrZe-	prZez	chwa-
4C/	.	4ee\	4gg\	.	.	.	.	.	.	.	.	.	.	.	.	.	.	.	.	.	.	4ee\	li-	nad	-sZy-	cię	-le	4gg\	li-	nad	-sZy-	cię	-le
!	!	!LO:SIC:v:t=custos ee	!	!	!	!	!	!	!	!	!	!	!	!	!	!	!	!	!	!	!	!	!	!	!	!	!	!	!	!	!	!	!
4r	.	4ff\	4aa\	.	.	.	.	.	.	.	.	.	.	.	.	.	.	.	.	.	.	4ff\	-to-	swię-	-li	Zba-	Tey	4aa\	-to-	swię-	-li	zba-	Tey
!LO:LB:g=original	!	!LO:LB:g=original	!	!LO:LB:g=original	!	!	!	!	!	!LO:LB:g=original	!	!	!	!	!	!LO:LB:g=original	!	!	!	!	!	!LO:LB:g=original	!	!	!	!	!	!LO:LB:g=original	!	!	!	!	!
=8	=8	=8	=8	=8	=8	=8	=8	=8	=8	=8	=8	=8	=8	=8	=8	=8	=8	=8	=8	=8	=8	=8	=8	=8	=8	=8	=8	=8	=8	=8	=8	=8	=8
4C/	.	4ee\	4gg\	4C/	Mat-	Swię-	Co	dał	Ku	4c\	Mat-	Swię-	Co	dał	Ku	4e\	Mat-	Swię-	Co	dał	Ku	4ee\	-sci-	-te-	iabł-	-wie-	Pan-	4gg\	-śći-	-te-	iabł-	-wie-	Pan-
4D\	6\	4dd\	4ff\	4D/	-ko	-ta	zgrZe-	prZeZ	Chwa-	4Bn\	-ko	-ta	ZgrZe-	prZeZ	Chwa-	4f\	-ko	-ta	ZgrZe-	prZez	Chwa-	4dd\	.	.	.	.	.	4ff\	.	.	.	.	.
*	*	*2\right	*	*	*	*	*	*	*	*	*	*	*	*	*	*	*	*	*	*	*	*2\right	*	*	*	*	*	*	*	*	*	*	*
4E\	6	[<2cc\	2eet\	4E\	li-	nad	-sZy-	cię	-le	4c\	li-	nad	-sZy-	cię	-le	4g\	li-	nad	-sZy-	cię	-le	[<2cc\	.	.	.	.	.	2ee\	.	.	.	.	.
4F\	7 5	.	.	4F\	-to-	Swię-	-li	Zba-	Tey	4A/	-tos-	Swię-	-li	Zba-	Tey	4a\	-tos-	swię-	-li	Zba-	Tey	.	.	.	.	.	.	.	.	.	.	.	.
!	!	!	!LO:LB:g=original	!	!	!	!	!	!	!	!	!	!	!	!	!	!	!	!	!	!	!	!	!	!	!	!	!	!	!	!	!	!
=9	=9	=9	=9	=9	=9	=9	=9	=9	=9	=9	=9	=9	=9	=9	=9	=9	=9	=9	=9	=9	=9	=9	=9	=9	=9	=9	=9	=9	=9	=9	=9	=9	=9
!LO:TX:t=P:problem:mixed beam	!	!	!	!LO:TX:t=P:problem:mixed beam	!	!	!	!	!	!	!	!	!	!	!	!	!	!	!	!	!	!	!	!	!	!	!	!	!	!	!	!	!
8E\L	.	4cc\]	2ddT\	8G\L	-sci-	-te-	iabł-	-wie-	Pan-	4d\	-ci-	-te-	iabł-	-wie-	Pan-	2g\	-ci-	-te-	iabł-	-wie-	Pan-	4cc\]	.	.	.	.	.	8dd\L	.	.	.	.	.
8F\	4	.	.	8F\	.	.	.	.	.	.	.	.	.	.	.	.	.	.	.	.	.	.	.	.	.	.	.	16ee\L	.	.	.	.	.
.	.	.	.	.	.	.	.	.	.	.	.	.	.	.	.	.	.	.	.	.	.	.	.	.	.	.	.	16ff\JJ	.	.	.	.	.
!	!	!LO:TX:a:t=t	!	!	!	!	!	!	!	!	!	!	!	!	!	!	!	!	!	!	!	!LO:TX:a:t=t	!	!	!	!	!	!	!	!	!	!	!
8G\	n3r	4bn\	.	8G\	.	.	.	.	.	4Bn\	.	.	.	.	.	.	.	.	.	.	.	4bn\	.	.	.	.	.	4ddT\	.	.	.	.	.
8GG/J	.	.	.	8GG/J	.	.	.	.	.	.	.	.	.	.	.	.	.	.	.	.	.	.	.	.	.	.	.	.	.	.	.	.	.
!LO:TX:t=P:problem:mixed beam	!	!	!	!	!	!	!	!	!	!	!	!	!	!	!	!	!	!	!	!	!	!	!	!	!	!	!	!	!	!	!	!	!
8C/L	.	2cc\	2cc\	2C/	-wa	-mi	-Kiem	-niè.	-nie	2e\	-wa	-mi	-kiem,	-niè,	-nie	2g\	-wa	-mi,	-kiem:	-nie,	-nie,	2cc\	-wa	-mi,	-kiem,	-nie	-nie	2cc\	-wa.	-mi.	-kiem.	-nie.	-nie.
16c\L	.	.	.	.	.	.	.	.	.	.	.	.	.	.	.	.	.	.	.	.	.	.	.	.	.	.	.	.	.	.	.	.	.
16d\JJ	.	.	.	.	.	.	.	.	.	.	.	.	.	.	.	.	.	.	.	.	.	.	.	.	.	.	.	.	.	.	.	.	.
16c\LL	.	.	.	.	.	.	.	.	.	.	.	.	.	.	.	.	.	.	.	.	.	.	.	.	.	.	.	.	.	.	.	.	.
16B-X\	.	.	.	.	.	.	.	.	.	.	.	.	.	.	.	.	.	.	.	.	.	.	.	.	.	.	.	.	.	.	.	.	.
16A\	.	.	.	.	.	.	.	.	.	.	.	.	.	.	.	.	.	.	.	.	.	.	.	.	.	.	.	.	.	.	.	.	.
16G\JJ	.	.	.	.	.	.	.	.	.	.	.	.	.	.	.	.	.	.	.	.	.	.	.	.	.	.	.	.	.	.	.	.	.
=10	=10	=10	=10	=10	=10	=10	=10	=10	=10	=10	=10	=10	=10	=10	=10	=10	=10	=10	=10	=10	=10	=10	=10	=10	=10	=10	=10	=10	=10	=10	=10	=10	=10
4F\	.	8c/L	4f/	4F\	Tys	O	a-	Je-	Za-	4c\	Tys	O	a-	Je-	Za-	4a\	Tys	O	a-	Je-	Za-	(8c/L	Tys	O	á-	Je-	Za-	4f/	Tys	O	A-	Je-	Za-
.	.	8d/J	.	.	.	.	.	.	.	.	.	.	.	.	.	.	.	.	.	.	.	8f/J)	.	.	.	.	.	.	.	.	.	.	.
4C/	.	4e/	4g/	4C/	iest	nay-	-leś	-Zus	-cho-	4c\	iest	nay-	-leś	-Zus	-cho-	4g\	iest	nay-	-leś	-Zus	-cho-	4e/	iest	nay-	-leś	-Zus	-cho-	4g/	iest	nay-	-leś	-Zus	-cho-
4F\	.	4c/	4a/	4F\	na-	-swię-	ty	Syn	-way	4c\	na-	-swię-	Ty	Syn	-way	4f\	na-	-swię-	ty	Syn	-way	4c/	na-	-świę-	Ty	Syn	-way	4a/	na-	-świę-	Ty	Syn	-way
4D\	6\	4d/	4f/	4D\	-ſZa	-tsZa	nap-	Twoy	nas	4Bn\	-ſZa	-tsZa	nap-	Twoy	nas	4f\	-ſZa	-tsZa	nap-	Twoy	nas	4d/	-ſZa	-tsZa	na-	Twoy	nas	4f/	-ſza	-tsZa	nap-	Twoy	nas
=11	=11	=11	=11	=11	=11	=11	=11	=11	=11	=11	=11	=11	=11	=11	=11	=11	=11	=11	=11	=11	=11	=11	=11	=11	=11	=11	=11	=11	=11	=11	=11	=11	=11
4C/	.	8e/L	8cc\L	4C/	u-	Ma-	-ra-	od-	od	4e\	u-	Ma-	-ra-	od-	od	4g\	u-	Ma-	-ra-	od-	od	8e/L	U-	Ma-	-pra-	od-	od	8cc\L	u-	Ma-	-ra-	od-	od
.	.	16f/L	16dd\L	.	.	.	.	.	.	.	.	.	.	.	.	.	.	.	.	.	.	16f/L	.	.	.	.	.	16dd\L	.	.	.	.	.
.	.	16g/JJ	16ee\JJ	.	.	.	.	.	.	.	.	.	.	.	.	.	.	.	.	.	.	16g/JJ	.	.	.	.	.	16ee\JJ	.	.	.	.	.
!	!	!LO:TX:a:t=t	!LO:TX:a:t=t	!	!	!	!	!	!	!	!	!	!	!	!	!	!	!	!	!	!	!	!	!	!	!	!	!	!	!	!	!	!
4GG/	n	8.d/L	4bn\	4GG/	-ciecz-	-ry-	-wi-	-ku-	złe-	4d\	-ciecz-	-ry-	-wi-	-Ku-	złe-	4g\	-ciecz-	-ry-	-wi-	-Ku-	złe-	4d/	-ciecz-	-ry-	-wi-	-Ku-	złe-	4bnt\	-ciecz-	-ry-	-wi-	-Ku-	złe-
.	.	16d/Jk	.	.	.	.	.	.	.	.	.	.	.	.	.	.	.	.	.	.	.	.	.	.	.	.	.	.	.	.	.	.	.
2C/	.	2e/	2cc\	2C/	-ka	-a	-ła	-pił	-go	2c\	-ka	-a	-ła	-pił	-go	2g\	-ka,	-a	-ła,	-pił	-go	2e/	-ka,	-a	-ła,	-pił	-go	2cc\	-ka	-a!	-ła,	-pił	-go
=12	=12	=12	=12	=12	=12	=12	=12	=12	=12	=12	=12	=12	=12	=12	=12	=12	=12	=12	=12	=12	=12	=12	=12	=12	=12	=12	=12	=12	=12	=12	=12	=12	=12
4F\	.	4c/	4f/	4F\	nay-	modl	Co	wsZys-	swo-	4c\	nay-	módl	co	wsZys-	swo-	4a\	Nay-	modl	Co	wsZys-	swo-	4f/	Nay-	módl	Co	wsZys-	swo-	4f/	Nay-	módl	Co	wsZys-	swo-
8c\L	.	4e/	4g/	8c\L	-swięt-	się	E-	-tko	-ie-	4c\	-święt-	się	E-	-tKo	-ie-	4g\	-swięt-	się	E-	-tKo	-ie-	4e/	-święt-	się	E-	-tKo	-ie-	4g/	-swięt-	się	E-	-tKo	-ie-
8B-\J	2	.	.	8B-\J	.	.	.	.	.	.	.	.	.	.	.	.	.	.	.	.	.	.	.	.	.	.	.	.	.	.	.	.	.
4A\	6	4f/	4a/	4A\	-sZa	dzis	-wa	ludz-	-mi	4c\	-sZa	dZis	-wa	ludz-	-mi	4f\	-sZa	dZiś	-wa	ludz-	-mi	4f/	-sZa	dzis	-wa	ludz-	-mi	4a/	-sZa	dziś	-wa	ludz-	-mi
4G\	-	4g/	4b-X/	4G\	Ma-	Za	stra-	-kie	pro-	4B-X\	Ma-	Za	stra-	-kie	pro-	4e\	Ma-	Za	stra-	-kie	pro-	4g/	Ma-	Za	stra-	-kie	pro-	4b-X\	Ma-	Za	stra-	-kie	pro-
=13	=13	=13	=13	=13	=13	=13	=13	=13	=13	=13	=13	=13	=13	=13	=13	=13	=13	=13	=13	=13	=13	=13	=13	=13	=13	=13	=13	=13	=13	=13	=13	=13	=13
8F\L	.	8c/	4a/	8F\L	-ry-	na-	-ci-	ple-	-Zba-	(8c\L	-ry-	na-	-ci-	ple-	-zba-	(8f\L	-ry-	na-	-ci-	ple-	-źba-	8c/	-ry-	na-	-ci-	ple-	-źba-	(4a\	-ry-	na-	-ci-	ple-	-zba-
8BB-\J	7 5	4f/	.	8BB-\J	.	.	.	.	.	8d\J)	.	.	.	.	.	8b-\J)	.	.	.	.	.	4f/	.	.	.	.	.	.	.	.	.	.	.
4C/	.	.	4g/	4C/	.	.	.	.	.	4c\	.	.	.	.	.	4g\	.	.	.	.	.	.	.	.	.	.	.	4g/)	.	.	.	.	.
.	.	8e/	.	.	.	.	.	.	.	.	.	.	.	.	.	.	.	.	.	.	.	8e/	.	.	.	.	.	.	.	.	.	.	.
!	!	!	!	!	!	!	!	!	!	!	!	!	!	!	!	!	!	!	!	!	!	!	!	!	!	!	!	!LO:TX:t=P:problem:znak repetycji	!	!	!	!	!
2FF/	.	2f/	2f/	2FF/	-a	-mi	-ła	-mię.	-mi.	2c\	-a	-mi.	-ła.	-mię.	-mi.	2a\	-a	-mi.	-ła.	-mię.	-mi.	2f/	-a.	-mi.	-ła	-mię.	-mi.	2f/	-a.	-mi.	-ła.	-mię.	-mi.
==	==	==	==	==	==	==	==	==	==	==	==	==	==	==	==	==	==	==	==	==	==	==	==	==	==	==	==	==	==	==	==	==	==
*-	*-	*-	*-	*-	*-	*-	*-	*-	*-	*-	*-	*-	*-	*-	*-	*-	*-	*-	*-	*-	*-	*-	*-	*-	*-	*-	*-	*-	*-	*-	*-	*-	*-
!!!system-decoration: [g1][g2]s8
!!!RDF**kern: < = below
!!!ENC: Marta Lawrence
!!!END: 2021-04-09
!!!ENC: Tomasz Grochalski
!!!END: 2021-03-22
